X: 27406
T: Moghrey Laa Boaldyn
R: jig
M: 6/8
K: Gmajor
|:G|GBd dcc|cBB BAA|GBd dBd|ece d2d|
dBd dBd|ece ece|gfg edB|cAF G2:|
|:G|GBd g2g|ege dBG|GBd g2g|age d3|
GBd g2g|ege dBG|c2c BcB|ABA G2:|

